!!!OTL: IN DES GARTENS DUNKLER LAUBE
!!!ARE: Europa, Mitteleuropa, Deutschland, Lahn - Gebiet
!!!SCT: E0112B
!!!YEM: Copyright 1995, estate of Helmut Schaffrath.
**kern
*ICvox
*Ivox
*M3/4
*k[b-e-]
*B-:
{8f
8e-
=1
8d
8f
4b-
8f
8e-
=2
8d
8f
4b-}
{8b-
8b-
=3
4.a
8g
8f
8e-
=4
2d}
{8d
8d
=5
8f
8ee-
8ee-
8ee-
8dd
8cc
=6
8cc
8b-
4b-}
{8b-
8b-
=7
8a
8g
4dd
4cc
=8
2b-}
==
!!!AGN: erzaehlendes Volks - Lied, Sage, Liebe, Leid, Tod, Ballade ?
!!!ONB: ESAC (Essen Associative Code) Database: ERK1
!!!AMT: simple triple
!!!AIN: vox
!!!EED: Helmut Schaffrath
!!!EEV: 1.0
*-
